icons/telemedicine.svg

<svg width="48" height="48" viewBox="0 0 48 48" fill="none" xmlns="http://www.w3.org/2000/svg">
<path fill-rule="evenodd" clip-rule="evenodd" d="M8 6C6.89543 6 6 6.89543 6 8V34C6 35.1046 6.89543 36 8 36H23V40H16V42H32V40H25V36H40C41.1046 36 42 35.1046 42 34V8C42 6.89543 41.1046 6 40 6H8ZM12 31.3799L12.0001 31.3638L12.0001 30.7132C12.0001 28.1964 15.7306 25.8289 19.3334 25.0084C19.9183 24.8752 19.852 25.7187 20.0001 26H22.7094C23.5206 25.9998 24.3153 26.0002 25.1235 26H27.8329C27.9851 25.711 28.3316 24.9321 28.6667 25.0084C29.4197 25.1799 30.1783 25.419 30.9073 25.7129L30.9297 25.7018L30.9369 25.7165L30.9419 25.7269C33.6853 26.841 36.0001 28.7309 36.0001 30.7132L36 34H39V10H9V34H12V31.3799ZM15.4945 28.8404C16.0283 28.4509 16.6591 28.091 17.3409 27.7817C17.3506 27.9685 17.3692 28.1572 17.3942 28.3401C17.4397 28.674 17.5085 29.0053 17.5918 29.2908L17.5973 29.3096C17.038 29.6642 16.6667 30.2887 16.6667 31C16.6667 32.1046 17.5621 33 18.6667 33C19.7712 33 20.6667 32.1046 20.6667 31C20.6667 29.9748 19.8954 29.1298 18.9014 29.0136C18.8917 28.9836 18.8818 28.9516 18.8718 28.9175C18.8093 28.7031 18.7531 28.4371 18.7153 28.1599C18.6809 27.9075 18.6636 27.6595 18.6671 27.4439L18.7927 27.6825L22.7096 27.6825C23.3214 27.6824 23.6191 27.6824 23.9175 27.6825H23.9264C24.2209 27.6825 24.519 27.6826 25.1234 27.6825L29.0402 27.6825L29.2699 27.2461C29.4488 27.3036 29.6271 27.3651 29.804 27.4305C29.8085 27.6492 29.7912 27.9023 29.7561 28.1599C29.7183 28.4371 29.6621 28.7031 29.5996 28.9175C29.5911 28.9464 29.5827 28.974 29.5744 29H28.6667C28.4142 29 28.1833 29.1427 28.0704 29.3685L27.4037 30.7019C27.3574 30.7944 27.3333 30.8965 27.3333 31V32.3333C27.3333 32.7015 27.6318 33 28 33H29.3333V31.6667H28.6667V31.1574L29.0787 30.3333H30.9213L31.3333 31.1574V31.6667H30.6667V33H32C32.3682 33 32.6667 32.7015 32.6667 32.3333V31C32.6667 30.8965 32.6426 30.7944 32.5963 30.7019L31.9296 29.3685C31.8167 29.1427 31.5858 29 31.3333 29H30.9558C31.0051 28.7901 31.0465 28.5657 31.0772 28.3401C31.0925 28.2283 31.1054 28.1143 31.1153 28C31.9273 28.4098 32.6228 28.8786 33.1357 29.357C33.8676 30.0396 34.0001 30.5153 34.0001 30.7132L34 34H14L14.0001 30.7133C14.0001 30.4395 14.2635 29.7385 15.4945 28.8404ZM19.3333 31C19.3333 31.3828 19.0256 31.6765 18.6667 31.6765C18.3077 31.6765 18 31.3828 18 31C18 30.6172 18.3077 30.3235 18.6667 30.3235C19.0256 30.3235 19.3333 30.6172 19.3333 31ZM24 9C24.5523 9 25 8.55228 25 8C25 7.44772 24.5523 7 24 7C23.4477 7 23 7.44772 23 8C23 8.55228 23.4477 9 24 9Z" fill="black"/>
<path fill-rule="evenodd" clip-rule="evenodd" d="M24 22C26.2091 22 28 20.2091 28 18C28 15.7909 26.2091 14 24 14C21.7909 14 20 15.7909 20 18C20 20.2091 21.7909 22 24 22ZM24 24C27.3137 24 30 21.3137 30 18C30 14.6863 27.3137 12 24 12C20.6863 12 18 14.6863 18 18C18 21.3137 20.6863 24 24 24Z" fill="black"/>
</svg>

<svg
  xmlns="http://www.w3.org/2000/svg"
  width="24"
  height="24"
  viewBox="0 0 24 24"
  fill="none"
  stroke="currentColor"
  stroke-width="2"
  stroke-linecap="round"
  stroke-linejoin="round"
>
  <path
    fill-rule="evenodd"
    d="M8 6a2 2 0 0 0-2 2v26a2 2 0 0 0 2 2h15v4h-7v2h16v-2h-7v-4h15a2 2 0 0 0 2-2V8a2 2 0 0 0-2-2zm4 25.38v-.666c0-2.518 3.73-4.885 7.333-5.706.585-.133.519.71.667.992h7.833c.152-.289.499-1.068.834-.992.753.172 1.511.411 2.24.705l.023-.011.007.014.005.01C33.685 26.842 36 28.732 36 30.714V34h3V10H9v24h3zm3.495-2.54c.533-.39 1.164-.749 1.846-1.058a6.71 6.71 0 0 0 .25 1.51l.006.018a2 2 0 1 0 1.304-.296l-.03-.096a5.4 5.4 0 0 1-.204-1.474l.126.239H29.04l.23-.437q.268.087.534.184c.005.22-.013.472-.048.73a5.4 5.4 0 0 1-.182.84h-.907a.67.67 0 0 0-.597.369l-.666 1.333a.7.7 0 0 0-.07.298v1.333c0 .369.298.667.666.667h1.333v-1.333h-.666v-.51l.412-.824h1.842l.412.824v.51h-.666V33H32a.667.667 0 0 0 .667-.667V31a.7.7 0 0 0-.07-.298l-.667-1.334a.67.67 0 0 0-.597-.368h-.377a7 7 0 0 0 .16-1c.811.41 1.507.879 2.02 1.357.732.683.864 1.158.864 1.356V34H14v-3.287c0-.274.264-.975 1.495-1.873M19.333 31a.67.67 0 0 1-.666.677A.67.67 0 0 1 18 31c0-.383.308-.677.667-.677s.666.294.666.677M24 9a1 1 0 1 0 0-2 1 1 0 0 0 0 2"
    clip-rule="evenodd"
  />
  <path
    fill-rule="evenodd"
    d="M24 22a4 4 0 1 0 0-8 4 4 0 0 0 0 8m0 2a6 6 0 1 0 0-12 6 6 0 0 0 0 12"
    clip-rule="evenodd"
  />
</svg>
